X: 40
T: Steal-partner Dance Song (f)
C: Anon.
%%abc-version 2.0
%%abcx-abcm2ps-target-version 5.9.1 (29 Sep 2008)
%%abc-creator hum2abc beta
%%abcx-conversion-date 2020/08/10 20:56:09
%%abc-copyright Electronic Copyright 2000 David Huron
%%abc-edited-by David Huron
%%abcx-initial-encoding-date August 28, 2000
%%humdrum-veritas 1227908432
%%humdrum-veritas-data 2497448817
%%linebreak <none>
%%barnumbers 0
L: 1/8
M: 5/8
Q: 1/8=144
K: F clef=bass
A,2!tenuto!A, G, A, | 
F,2F,2G,[M:3/4] | 
G,> F,G,2G, F,/ z/[M:2/4] | 
A, G, A,3/ G,/ | 
F,2z2 | 
F, F,- F,3/ D,/ | 
F, F,F,2[M:5/8] | 
A, F, G,- G,3/ F,/[M:2/4] | 
D,2z2 | 
F, F,- F,3/ G,/ | 
F, F,F,2[M:5/8] | 
C2A,2G,[M:2/4] | 
F,2z2 | 
G, G,- G,3/ F,/ | 
G,2-G, F,/ z[M:5/8] | 
A,2G,2A,[M:2/4] | 
F,2z2 | 
F, F,- F,3/ D,/ | 
F, F,F,2[M:5/8] | 
A,F, G,-G,3/F,/[M:2/4] | 
D,2z2 | 
F, F,- F,3/ G,/ | 
F, F,F,2 |]  
A,2A,3/ G,/ [I:setbarnb 25]| 
F,2z2 | 
G, G,- G,3/ F,/ | 
G,2G, F,[M:5/8] | 
A,2G,2A,[M:2/4] | 
F,2z2 | 
F, F,- F, D, | 
F, F,F,2[M:5/8] | 
A, F, G,- G,3/ F,/[M:2/4] | 
D,2D, z | 
F, F,- F,3/ G,/ | 
F, F,F,2 :|]  


